!!!COM: Music21
!!!OTL: Na Terra de Trasancos
!!!OMV: pezas_rumbas_na-terra-de-trasancos_na-terra-de-trasancos-partitura.musicxml
**kern
*I"Bagpipes
*I'Bag
*clefG^2
*k[b-e-a-]
*E-:
*M2/4
=1
!LO:TX:a:t=Presto
*MM180
!LO:TX:a:t=[quarter]=180
!LO:TX:b:t=[quarter]=120
8ccL
8ee-J
8ccL
8ee-J
=
8ggL
8ee-J
8ccL
8ggJ
=
8ee-L
8ccJ
8ggL
8ee-J
=
8ggL
8ee-J
4cc
=
8ccL
8ee-J
8ccL
8ee-J
=
8ggL
8ee-J
8ccL
8ggJ
=
8ee-L
8ccJ
8ggL
8ee-J
!!linebreak:original
=
2dd
=
8ddL
8ffJ
8ddL
8ffJ
=
8aa-L
8ffJ
8ddL
8aa-J
=
8ffL
8ddJ
8aa-L
8ffJ
=
8aa-L
8ffJ
4dd
=
8ddL
8ffJ
8ddL
8ffJ
=
8aa-L
8ffJ
8ddL
8aa-J
!!linebreak:original
=
8ffL
8ddJ
8aa-L
8bnJ
!!linebreak:original
=
2cc
=
8ccL
8ee-J
8ccL
8ee-J
=
8ggL
8ee-J
8ccL
8ggJ
=
8ee-L
8ccJ
8ggL
8ee-J
=
8ggL
8ee-J
4cc
=
8ccL
8ee-J
8ccL
8ee-J
=
8ggL
8ee-J
8ccL
8ggJ
!!linebreak:original
=
8ee-L
8ccJ
8ggL
8ee-J
!!linebreak:original
=
4ff
8ffL
8ggJ
=||
8aa-L
8cccJ
8bb-L
8aa-J
=
8ggL
8ffJ
8ee-L
8ddJ
=
8ee-L
8bb-J
8aa-L
8ggJ
=
8ffL
8ee-J
8ddL
8ccJ
=
8ddL
8aa-J
8ggL
8ffJ
=
8ee-L
8ddJ
8ee-L
8ffJ
!!linebreak:original
=
4gg
4ff#X
=
4gg
8ffL
8ggJ
=||
8aa-L
8cccJ
8bb-L
8aa-J
=
8ggL
8ffJ
8ee-L
8ddJ
=
8ee-L
8bb-J
8aa-L
8ggJ
=
8ffL
8ee-J
8ddL
8ccJ
=
8ddL
8aa-J
8ggL
8ffJ
!!linebreak:original
=
8ee-L
8ddJ
8ccL
8bnJ
=
[2cc
=
2cc]
=||
8ccL
8bnJ
8ccL
8ddJ
=
8ee-L
8cccJ
8bb-L
8aa-J
=
8ggL
8ffJ
8ee-L
8ddJ
!!linebreak:original
=
4ee-
4cc
=
8ee-L
8ccJ
8ee-L
8ccJ
=
4dd
4bn
=
8ffL
8ddJ
8ffL
8ddJ
=
4ee-
4cc
=||
8ccL
8bnJ
8ccL
8ddJ
=
8ee-L
8cccJ
8bb-L
8aa-J
!!pagebreak:original
=
8ggL
8ffJ
8ee-L
8ddJ
!!linebreak:original
=
4ee-
4cc
=
8ee-L
8ccJ
8ee-L
8ccJ
=
8ddL
8bnJ
8ffL
8ddJ
=
8ee-L
8ccJ
8ddL
8bnJ
=
2cc
!!linebreak:original
=||
8ccL
8bnJ
8ccL
8ddJ
=
8ee-L
8cccJ
8bb-L
8aa-J
=
8ggL
8ffJ
8ee-L
8ddJ
=
4cc
4ccc
=
8ee-L
8ggJ
8ee-L
8ggJ
=
4dd
4bb-
=
8ffL
8aa-J
8ffL
8aa-J
!!linebreak:original
=
4gg
4ee-
!!linebreak:original
=||
8ccL
8bnJ
8ccL
8ddJ
=
8ee-L
8cccJ
8bb-L
8aa-J
=
8ggL
8ffJ
8ee-L
8ddJ
=
4cc
4ccc
=
8ee-L
8ggJ
8ee-L
8ggJ
!!pagebreak:original
=
8ffL
8ee-J
8ddL
8ee-J
=
8ffL
8ee-J
8ddL
8ee-J
=
2cc
==
*-
